X:1
T:Fantaisie Impromptu
T:Impromptu in C♯ minor Op. posth. 66
T:Fantaisie-Impromptu
T:Frédéric Chopin
C:Frédéric Chopin
%%score { ( 1 3 ) | ( 2 4 ) }
L:1/8
Q:1/2=81
M:2/2
K:E
V:1 treble nm="鋼琴" snm="Pno."
V:3 treble 
V:2 bass 
V:4 bass 
V:1
"^Allegro agitato" z8 | z8 | %2
[Q:1/4=80]"_."[Q:1/4=42] z8[Q:1/4=120]"^."[Q:1/4=66][Q:1/4=102][Q:1/4=138][Q:1/4=140]"^."[Q:1/4=162][Q:1/4=162]"^." | %3
 z8 |!p! z/ (G/A/G/ ^^F/G/c/e/ d/c/d/c/ ^B/c/e/g/) | z/ (G/A/G/ ^^F/G/c/e/ d/c/d/c/ ^B/c/e/g/) | %6
 z/!<(! (A/c/d/ f/a/c'/d'/!<)!!f!!8va(!!>(! b'/a'/g'/f'/ e'/d'/f'/c'/)!8va)!!>)! | %7
!p! (^b/d'/a/g/ f/a/e/d/ f/c/^B/d/ A/G/=B/A/-) | A/(G/A/G/ ^^F/G/c/e/ d/c/d/c/ ^B/c/e/g/) | %9
 z/ (G/^A/G/ ^^F/G/c/e/ d/c/d/c/ ^B/c/e/g/) | %10
"_cresc." (d/e/d/^^c/ d/b/^a/g/ ^^f/)(e'/d'/^c'/ b/a/g/f/) | %11
!f!!>(! (^a/g/b/!>)!!mp!^^c/)!f!!>(! (e/d/g/!>)!!mp!^A/)!f!!>(! (^c/B/d/!>)!!mp!^^F/)!f!!>(! (A/G/F/!>)!!mp!G/) | %12
!f! G2 F2 ^E2 F2 | (!>!C/c/F/A/) (!>!D/d/F/A/) (!>!E/e/G/B/) (!>!G/g/B/e/) | %14
 (!>!G/g/^B/c/) (!>!F/f/B/c/) (!>!^E/^e/B/c/) (!>!F/f/B/c/) | %15
!>(! (!>!^E/^e/=B/d/) (!>!F/f/B/d/) (!>!A/a/B/=e/) (!>!G/g/B/e/)!>)! |!p! x/ g2 f2 ^e2 f x/ | %17
 (C/!>!c/"_cresc."F/A/) (D/!>!d/F/A/) (E/!>!e/G/B/) (G/!>!g/B/e/) | %18
 (G/!>!g/^B/c/) (F/!>!f/B/c/)!f! (d/!>!d'/f/a/) (c/!>!c'/f/a/) | %19
!>(! (c/!>!c'/d/f/) (^B/!>!^b/d/f/)!>)!!mf! (B/"_dimin."!>!b/d/f/) (B/!>!b/d/f/) | %20
 (=c/!>!=c'/d/f/) (=B/!>!=b/d/f/) (B/!>!b/d/f/) (^A/!>!^a/d/f/) | %21
 (^A/^a/d/f/) (=A/=a/d/f/) (A/a/d/f/) (A/a/d/f/) | %22
!pp! (=c/=c'/d/f/) (=B/b/d/f/) (B/b/d/f/) (^A/^a/d/f/) | %23
 (^A/^a/d/f/)[Q:1/4=130]"_riten."[Q:1/4=150]!>(! (=A/=a/d/f/)[Q:1/4=120]"^."[Q:1/4=126] (A/a/d/f/)[Q:1/4=110]"^."[Q:1/4=90] (G/g/d/!>)!f/) | %24
!p! z/[Q:1/4=162]"^a tempo" (G/A/G/ ^^F/G/c/e/ d/c/d/c/ ^B/c/e/g/) | %25
 z/ (G/A/G/ ^^F/G/c/e/ d/c/d/c/ ^B/c/e/g/) | %26
 z/!<(! (A/c/d/ f/a/c'/d'/!<)!!f!!8va(!!>(! b'/a'/g'/f'/ e'/d'/f'/c'/)!8va)!!>)! | %27
!p! (^b/d'/a/g/ f/a/e/d/ f/c/^B/d/ A/G/=B/A/-) | %28
 A/(G/A/G/ ^^F/G/c/e/"_cresc." d/c/d/c/ ^B/c/e/g/) | %29
 (e/d/e/d/ ^^c/d/f/a/) (f/^e/f/e/ ^^d/e/g/^c'/) | %30
 z/ (c/=d/c/ ^B/c/f/a/ f/^e/f/e/ ^^d/e/g/!mf!c'/) | %31
"_sempre cresc." (g/f/g/f/ ^e/f/a/c'/) a/(g/a/g/ ^^f/g/^b/d'/) | %32
 (g/a/g/^^f/ g/)(!>!e'/d'/=d'/ c'/=c'/b/^a/ =a/g/=g/^f/) | %33
 (e/f/e/d/ e/)(!>!e'/d'/=d'/ c'/=c'/b/^a/ =a/g/=g/f/ | %34
 ^g/) z/ (!>!g'/=g'/ f'/^e'/=e'/d'/ =d'/c'/=c'/b/ ^a/=a/^g/=g/ | %35
!<(! f/^e/=e/d/ =d/c/=c/B/ ^A/=A/G/=G/ F/=E/^D/^C/!<)! | %36
 !wedge!G,) z!ff!!8va(! (!>!a'/g'/e''/e'/) (!>!f'/e'/c''/c'/) (!>!d'/c'/g'/g/)!8va)! | %37
 (a/g/e'/e/) (f/e/c'/c/) (d/c/g/G/) (A/G/e/E/) | %38
 (F/E/c/C/) (D/C/G/G,/)[Q:1/4=140]"^riten."[Q:1/4=150]!>(! (D/C/G/G,/)[Q:1/4=138] (D/C/A/A,/) | %39
[Q:1/4=130]"_."[Q:1/4=126] (D/C/G/G,/)[Q:1/4=114] (D/C/^^F/^^F,/)[Q:1/4=102] (D/C/G/G,/)[Q:1/4=90] (D/[Q:1/4=78]^B,/[Q:1/4=66]G/[Q:1/4=54]G,/)!>)! || %40
[K:Db][Q:1/4=65]"^Largo"[Q:1/4=40] z8[Q:1/4=70] | z8 || %42
[M:4/4][Q:1/4=72]"^Moderato cantabile""_sotto voce"!p! A4 TB!<(!Ade | x6!<)!!mf! !>!A2 | %44
!>(! g2 f2 e2 !>!f>d!>)! |!p! x4 (!>!B4- | B4 T_c!<(!Bef)!<)! |!mf! (g2 f2 e2 f2) | %48
 (d4{cded}!>(! f3 e!>)! |!p! !>!e8)[Q:1/4=90]"_riten."[Q:1/4=66][Q:1/4=54] | %50
[Q:1/4=72]"^a tempo" A4 TB!<(!Ade | x6!<)! !>!A2 |!>(! g2 f2 e2{fede}!>(! f>!>)!d!>)! | %53
!p! x4 (!>!B4- | B4 T_c!<(!Bef)!<)! |!mf! (g2 f2 e2 f2 | d3) (=G/4A/4B/4A/4!>(! f3 e)!>)! | %57
!p! (!>!e4 d2) z (a | A4) (TB>!<(!=AB>c!<)! |!f! _A) z (c'2-!>(! (7:4:7c'ba"^"_fd)B3/2!>)!(a/ | %60
!p! !>!E4)"_dim."!>(!{/c} (B>=AB>e!>)! | _A2) z2!pp! (B2!>(! (3d"^"cB)!>)! | A4 TB!<(!Ade | %63
 x6!<)! !>!A2 | g2 f2 e2{fede}!>(! f>!>)!d | x4!>(! !>!B4-!>)! |!p! B4 T_c!<(!Bef!<)! | %67
!mf! (g2 f2 e2 f2 | d3) (=G/4A/4B/4A/4!>(! f3 e)!>)! |!p! (!>!e4 d2) z (a | A4)!<(! (TB>=AB>c!<)! | %71
!f! _A) z (c'2-!>(! (7:4:7c'ba"^"_fdB3/2)!>)!(a/ |!p! !>!E4)"_dim."!>(!{/c} (B>=AB>e!>)! | %73
 _A2) z2!pp! (B2!>(! (3d"^"cB)!>)! | A4 TB!<(!Ade | x6!<)! !>!A2 | g2 f2 e2{fede}!>(! f>!>)!d | %77
 x4!>(! !>!B4-!>)! |!p! B4 T_c!<(!Bef!<)! |!mf! (g2 f2 e2 f2 | %80
"_dim."!>(! d3) (=G/4A/4B/4A/4 f3 e!>)! | %81
!p![Q:1/4=90]"^riten."[Q:1/4=66] e8)[Q:1/4=54][Q:1/4=42][Q:1/4=30] || %82
[K:E][M:2/2]!p![Q:1/4=162]"^Presto" z/ (G/A/G/ ^^F/G/c/e/ d/c/d/c/ ^B/c/e/g/) | %83
 z/ (G/A/G/ ^^F/G/c/e/ d/c/d/c/ ^B/c/e/g/) | %84
 z/!<(! (A/c/d/ f/a/c'/d'/!<)!!f!!8va(!!>(! b'/a'/g'/f'/ e'/d'/f'/c'/)!8va)!!>)! | %85
!p! (^b/d'/a/g/ f/a/e/d/ f/c/^B/d/ A/G/=B/A/-) | A/(G/A/G/ ^^F/G/c/e/ d/c/d/c/ ^B/c/e/g/) | %87
 z/ (G/^A/G/ ^^F/G/c/e/ d/c/d/c/ ^B/c/e/g/) | %88
"_cresc." (d/e/d/^^c/ d/b/^a/g/ ^^f/)(e'/d'/^c'/ b/a/g/f/) | %89
!f!!>(! (^a/g/b/!>)!!mp!^^c/)!f!!>(! (e/d/g/!>)!!mp!^A/)!f!!>(! (^c/B/d/!>)!!mp!^^F/)!f!!>(! (A/G/F/!>)!!mp!G/) | %90
!f! G2 F2 ^E2 F2 | (!>!C/c/F/A/) (!>!D/d/F/A/) (!>!E/e/G/B/) (!>!G/g/B/e/) | %92
 (!>!G/g/^B/c/) (!>!F/f/B/c/) (!>!^E/^e/B/c/) (!>!F/f/B/c/) | %93
!>(! (!>!^E/^e/=B/d/) (!>!F/f/B/d/) (!>!A/a/B/=e/) (!>!G/g/B/e/)!>)! |!p! x/ g2 f2 ^e2 f x/ | %95
 (C/!>!c/"_cresc."F/A/) (D/!>!d/F/A/) (E/!>!e/G/B/) (G/!>!g/B/e/) | %96
 (G/!>!g/^B/c/) (F/!>!f/B/c/)!f! (d/!>!d'/f/a/) (c/!>!c'/f/a/) | %97
!>(! (c/!>!c'/d/f/) (^B/!>!^b/d/f/)!>)!!mp! (B/"_dimin."!>!b/d/!>(!f/) (B/!>!b/d/f/) | %98
 (=c/!>!=c'/d/f/) (=B/!>!=b/d/f/) (B/!>!b/d/f/) (^A/!>!^a/d/f/) | %99
 (^A/^a/d/f/) (=A/=a/d/f/) (A/a/d/f/) (A/a/d/f/)!>)! | %100
!pp! (=c/=c'/d/f/) (=B/b/d/f/) (B/b/d/f/) (^A/^a/d/f/) | %101
 (^A/^a/d/f/)[Q:1/4=110]"_riten."[Q:1/4=150]!>(! (=A/=a/d/f/)[Q:1/4=126] (A/a/d/f/)[Q:1/4=90] (G/g/d/!>)!f/) | %102
!p![Q:1/4=162]"^a tempo" z/ (G/A/G/ ^^F/G/c/e/ d/c/d/c/ ^B/c/e/g/) | %103
 z/ (G/A/G/ ^^F/G/c/e/ d/c/d/c/ ^B/c/e/g/) | %104
 z/!<(! (A/c/d/ f/a/c'/d'/!<)!!f!!8va(!!>(! b'/a'/g'/f'/ e'/d'/f'/c'/)!8va)!!>)! | %105
!p! (^b/d'/a/g/ f/a/e/d/ f/c/^B/d/ A/G/=B/A/-) | %106
 A/(G/A/G/ ^^F/G/c/e/"_cresc." d/c/d/c/ ^B/c/e/g/) | %107
 (e/d/e/d/ ^^c/d/f/a/) (f/^e/f/e/ ^^d/e/g/^c'/) | z/ (c/=d/c/ ^B/c/f/a/ f/^e/f/e/ ^^d/e/g/c'/) | %109
"_sempre cresc." (g/f/g/f/ ^e/f/a/c'/) a/(g/a/g/ ^^f/g/^b/d'/) | %110
 (g/a/g/^^f/ g/)(!>!e'/d'/=d'/ c'/=c'/b/^a/ =a/g/=g/^f/) | %111
 (e/f/e/d/ e/)(!>!e'/d'/=d'/ c'/=c'/b/^a/ =a/g/=g/f/ | %112
 ^g/) z/ (!>!g'/=g'/ f'/^e'/=e'/d'/ =d'/c'/=c'/b/ ^a/=a/^g/=g/ | %113
!<(! f/^e/=e/d/ =d/c/=c/B/ ^A/=A/G/=G/ F/=E/^D/^C/!<)! | %114
 !wedge!G,) z!ff!!8va(! (!>!a'/g'/e''/e'/) (!>!f'/e'/c''/c'/) (!>!d'/c'/g'/g/)!8va)! | %115
 (a/g/e'/e/) (f/e/c'/c/) (d/c/g/G/) (A/G/e/E/) | (F/E/c/C/) (D/C/G/G,/) (D/C/G/G,/) (D/C/A/A,/) | %117
 (D/C/G/G,/) (D/C/^^F/^^F,/)!>(! (D/C/G/G,/) (D/^B,/G/G,/) | %118
 (D/C/G/G,/)!>)! (A/G/!>!e/E/)!ff! (A/G/!>!e/E/) (A/G/!>!d/D/) | %119
!>(! (A/G/!>!d/D/) (A/G/!>!c/C/)!>)!!p! (E/D/!>!G/G,/)!<(! (E/D/!>!G/G,/) | %120
 (D/C/!>!G/G,/)!<)!!ff! (A/G/!>!e/E/) (A/G/!>!e/E/) (A/G/!>!d/D/) | %121
!>(! (A/G/!>!d/D/) (A/G/!>!c/C/)!>)!!p! (E/D/!>!G/G,/)!<(! (E/D/!>!G/G,/) | %122
 (D/C/!>!G/G,/)!<)!!ff! (A/G/!>!e/E/) (F/E/!>!c/C/) (A/G/!>!e/E/) | %123
"_poco a poco diminuendo" (D/C/!>!G/G,/) (A/G/!>!e/E/) (F/E/!>!c/C/) (A/G/!>!e/E/) | %124
 (F/E/c/C/) (A/G/c/C/) (F/E/c/C/) (A/G/c/C/) | (F/E/c/C/) (A/G/c/C/) (F/E/c/C/) (A/G/c/C/) | %126
 (D/C/G/G,/) (D/C/G/G,/)!p!!>(! (D/C/G/G,/) (D/C/G/G,/) | %127
 (D/C/G/G,/) (D/C/G/G,/) (D/C/G/G,/) (D/C/G/G,/)!>)! | %128
!pp!"_il canto marcato" (D/C/G/G,/) (D/C/G/G,/) (D/C/G/G,/) (D/C/G/G,/) | %129
 (D/C/G/G,/) (D/C/G/G,/) (D/C/G/G,/) (D/C/G/G,/) | %130
 (D/C/G/G,/) (D/C/G/G,/) (D/C/G/G,/) (D/C/G/G,/) | %131
 (D/C/G/G,/) (D/C/G/G,/) (D/C/G/G,/) (D/C/G/G,/) | %132
 (D/C/G/G,/) (D/C/G/G,/) (D/C/G/G,/) (D/C/G/G,/) | %133
 (D/C/G/G,/) (D/C/G/G,/) (D/C/G/G,/) (D/C/G/G,/) | %134
!>(! (D/C/G/^E,/) (D/C/G/E,/) (D/C/G/E,/) (D/C/G/E,/) | %135
[Q:1/4=100]"^riten."[Q:1/4=150] (^E/D/[Q:1/4=138]G/F,/)[Q:1/4=126] (E/D/[Q:1/4=114]G/F,/)[Q:1/4=102] (E/D/[Q:1/4=90]G/F,/)[Q:1/4=78] (E/D/[Q:1/4=64]G/F,/)!>)! | %136
[Q:1/4=80]"_."!ppp![Q:1/4=52] (!arpeggio![F,G,-^B,D]8 |[Q:1/4=40] !arpeggio![^E,G,C]8) |] %138
V:2
!ped! !>!!^![G,,G,]8- | [G,,G,]8!ped-up! | %2
!f!!ped! (3([C,,C,]"^" G,C(3E"^"CG,) (3(C,"^"G,C!>(!(3E"^"CG,) | %3
 (6:4:6(C,G,CECG,) (6:4:6(C,G,CECG,)!ped-up!!>)! | %4
!ped! (6:4:6(C,G,CECG,) (6:4:6(E,G,CEC!ped-up!G,) | %5
!ped! (6:4:6(C,G,CECG,) (6:4:6(E,G,CEC!ped-up!G,) | %6
!ped! (6:4:6(D,A,CFCA,) (6:4:6(F,CDADC)!ped-up! | %7
!ped! (6:4:6(G,,D,F,^B,F,D,) (6:4:6(G,,D,F,B,F,!ped-up!D,) | %8
!ped! (6:4:6(C,G,CECG,) (6:4:6(E,G,CEC!ped-up!G,) | %9
!ped! (6:4:6(C,G,^A,EA,G,)!ped-up!!ped! (6:4:6(E,G,A,CA,G,)!ped-up! | %10
!ped! (6:4:6(D,G,B,DB,!ped-up!G,)!ped! (6:4:6(D,^A,C^^FC!ped-up!A,) | %11
"^dimin."!ped! (6:4:6(G,,D,G,B,G,!ped-up!D,)!ped! (6:4:6(G,,D,G,B,G,!ped-up!D,) | %12
!ped! (6:4:6(A,,C,F,A,F,!ped-up!C,)!ped! (6:4:6(A,,C,F,A,F,C,)!ped-up! | %13
!ped! (6:4:6(B,,F,A,B,A,!ped-up!F,)!ped! (6:4:6(E,,B,,E,G,E,B,,)!ped-up! | %14
!ped! (6:4:6(A,,C,F,A,F,!ped-up!C,)!ped! (6:4:6(A,,C,F,A,F,!ped-up!C,) | %15
!ped! (6:4:6(B,,D,A,B,A,!ped-up!D,)!ped! (6:4:6(E,,B,,E,G,E,!ped-up!B,,) | %16
!ped! (6:4:6(A,,C,F,A,F,C,) (6:4:6(A,,C,F,A,F,!ped-up!C,) | %17
!ped! (6:4:6(B,,F,A,B,A,!ped-up!F,)!ped! (6:4:6(E,,B,,E,G,E,!ped-up!B,,) | %18
!ped! (6:4:6(A,,C,F,A,F,!ped-up!C,)!ped! (6:4:6(A,,D,F,A,F,!ped-up!D,) | %19
!ped! (6:4:6(G,,D,F,^B,F,D,) (6:4:6(G,,D,F,B,F,D,)!ped-up! | %20
!ped! (6:4:6(!>!A,,D,F,=B,F,!ped-up!D,)!ped! (6:4:6(!>!^A,,D,F,^A,F,!ped-up!D,) | %21
!ped! (6:4:6(^B,,D,F,=A,F,D,) (6:4:6(B,,D,F,=A,F,!ped-up!D,) | %22
!ped! (6:4:6(!>!A,,D,F,B,F,!ped-up!D,)!ped! (6:4:6(!>!^A,,D,F,^A,F,!ped-up!D,) | %23
!ped! (6:4:6(!>!B,,D,F,=A,F,!ped-up!D,)!ped! (6:4:6(!>!^B,,D,F,G,F,!ped-up!D,) | %24
!ped! (6:4:6(C,G,CECG,) (6:4:6(E,G,CEC!ped-up!G,) | %25
!ped! (6:4:6(C,G,CECG,) (6:4:6(E,G,CEC!ped-up!G,) | %26
!ped! (6:4:6(D,A,CFCA,) (6:4:6(F,CDADC)!ped-up! | %27
!ped! (6:4:6(G,,D,F,^B,F,D,) (6:4:6(G,,D,F,B,F,!ped-up!D,) | %28
!ped! (6:4:6(C,G,CECG,) (6:4:6(E,G,CEC!ped-up!G,) | %29
!ped! (6:4:6(F,CDAD!ped-up!C)[K:treble]!ped! (6:4:6(G,C^EBE!ped-up!C) | %30
!ped! (6:4:6(A,CFAF!ped-up!C)!ped! (6:4:6(G,C^EBE!ped-up!C) | %31
!ped! (6:4:6(A,CFAF!ped-up!C)[K:bass]!ped! (6:4:6(^B,,F,G,DG,!ped-up!F,) | %32
!ped! (6:4:6(C,G,CEC!ped-up!G,)!ped! (6:4:6(D,G,^B,FB,!ped-up!G,) | %33
!ped! (6:4:6(E,G,CEC!ped-up!G,)!ped! (6:4:6(F,CDAD!ped-up!C) | %34
!f! [G,CEG] z z2!ped! !>![^^F,CE=A]2!ped-up! z2 | z8 | %36
!ped! [G,,,G,,] z[K:treble] [Ee]2 [Cc]2 [G,G]2 |[K:bass] [E,E]2 [C,C]2 [G,,G,]2 [E,,E,]2 | %38
 [C,,C,]2 [G,,,G,,]2!ped-up!!ped! [G,,,G,,]2!ped-up!!ped! [A,,,A,,]2!ped-up! | %39
!ped! [G,,,G,,]2!ped-up!!ped! [^^F,,,^^F,,]2!ped-up!!ped! [G,,,G,,]4!ped-up! || %40
[K:Db]"^pesante"!p!!<(!!ped! (3(D,,"^"A,,D,(3F,"^"A,D!<)!!f!!>(! (3F"^"DA,(3F,"^"D,!>)!!p!A,,)!ped-up! | %41
"^poco dim." (6:4:6(D,,A,,"^"D,F,A,D (6:4:6FD"^"A,F,D,A,,-) || %42
[M:4/4]!ped! (6:4:6[D,,A,,] (A,CECA,) (6:4:6(D,A,CGCA,)!ped-up! | %43
!ped! (6:4:6(D,A,DFDA,)!ped-up!!ped! (6:4:6(D,A,F[I:staff -1]A[I:staff +1]F!ped-up!A,) | %44
!ped! !>!G2!ped-up!!ped! !>!F2!ped-up!!ped! !>!E2!ped-up!!ped! !>!D2!ped-up! | %45
!ped! (6:4:6(A,,E,A,CA,E,)!ped-up!!ped! (6:4:6(G,,G,B,DB,G,)!ped-up! | %46
!ped! (6:4:6(B,,F,B,=DB,F,)!ped-up!!ped! (6:4:6(B,,B,DAD!ped-up!B,) | %47
!ped! (3(E,GB,)!ped-up!!ped! (3(F,F=A,)!ped-up!!ped! (3(G,EB,)!ped-up!!ped! (3(_A,G!ped-up!C) | %48
!ped! (6:4:6(D,A,DFDA,)!ped-up!!ped! (6:4:6(E,=G,DEDG,)!ped-up! | %49
!ped! (6:4:6(A,,E,A,CA,E,)!ped-up!!ped! (6:4:6(A,,E,_G,B,G,E,)!ped-up! | %50
!ped! (6:4:6A,,(A,CECA,)!ped-up!!ped! (6:4:6(D,A,CGCA,)!ped-up! | %51
!ped! (6:4:6(D,A,DFDA,)!ped-up!!ped! (6:4:6(D,A,F[I:staff -1]A[I:staff +1]F!ped-up!A,) | %52
!ped! !>!G2!ped-up!!ped! !>!F2!ped-up!!ped! !>!E2!ped-up!!ped! !>!D2!ped-up! | %53
!ped! (6:4:6(A,,E,A,CA,E,)!ped-up!!ped! (6:4:6(G,,G,B,DB,G,)!ped-up! | %54
!ped! (6:4:6(B,,F,B,=DB,F,)!ped-up!!ped! (6:4:6(B,,B,DAD!ped-up!B,) | %55
!ped! (3(E,GB,)!ped-up!!ped! (3(F,F=A,)!ped-up!!ped! (3(G,EB,)!ped-up!!ped! (3(_A,G!ped-up!C) | %56
!ped! (6:4:6(D,A,DFDA,)!ped-up!!ped! (6:4:6(D,A,CGCA,)!ped-up! | %57
!ped! (6:4:6(D,A,CGCA,)!ped-up!!ped! (6:4:6(D,A,DFDA,)!ped-up! | %58
!ped! (6:4:6(A,,E,A,CA,E,)!ped-up!!ped! (6:4:6(A,,E,=G,DG,E,)!ped-up! | %59
!ped! (6:4:6(A,,E,A,CA,E,)!ped-up!!ped! (6:4:6(D,A,D_FDA,)!ped-up! | %60
!ped! (6:4:6(E,,E,A,CA,E,)!ped-up!!ped! (6:4:6(E,,E,=G,DG,E,)!ped-up! | %61
!ped! (6:4:6(A,,E,A,CA,E,)!ped-up!!ped! (6:4:6(_G,,_G,B,DB,G,)!ped-up! | %62
!ped! (6:4:6A,,(A,CECA,)!ped-up!!ped! (6:4:6(D,A,CGCA,)!ped-up! | %63
!ped! (6:4:6(D,A,DFDA,)!ped-up!!ped! (6:4:6(D,A,F[I:staff -1]A[I:staff +1]F!ped-up!A,) | %64
!ped! !>!G2!ped-up!!ped! !>!F2!ped-up!!ped! !>!E2!ped-up!!ped! !>!D2!ped-up! | %65
!ped! (6:4:6(A,,E,A,CA,E,)!ped-up!!ped! (6:4:6(G,,G,B,DB,G,)!ped-up! | %66
!ped! (6:4:6(B,,F,B,=DB,F,)!ped-up!!ped! (6:4:6(B,,B,DAD!ped-up!B,) | %67
!ped! (3(E,GB,)!ped-up!!ped! (3(F,F=A,)!ped-up!!ped! (3(G,EB,)!ped-up!!ped! (3(_A,G!ped-up!C) | %68
!ped! (6:4:6(D,A,DFDA,)!ped-up!!ped! (6:4:6(D,A,CGCA,)!ped-up! | %69
!ped! (6:4:6(D,A,CGCA,)!ped-up!!ped! (6:4:6(D,A,DFDA,)!ped-up! | %70
!ped! (6:4:6(A,,E,A,CA,E,)!ped-up!!ped! (6:4:6(A,,E,=G,DG,E,)!ped-up! | %71
!ped! (6:4:6(A,,E,A,CA,E,)!ped-up!!ped! (6:4:6(D,A,D_FDA,)!ped-up! | %72
!ped! (6:4:6(E,,E,A,CA,E,)!ped-up!!ped! (6:4:6(E,,E,=G,DG,E,)!ped-up! | %73
!ped! (6:4:6(A,,E,A,CA,E,)!ped-up!!ped! (6:4:6(_G,,_G,B,DB,G,)!ped-up! | %74
!ped! (6:4:6A,,(A,CECA,)!ped-up!!ped! (6:4:6(D,A,CGCA,)!ped-up! | %75
!ped! (6:4:6(D,A,DFDA,)!ped-up!!ped! (6:4:6(D,A,F[I:staff -1]A[I:staff +1]F!ped-up!A,) | %76
!ped! !>!G2!ped-up!!ped! !>!F2!ped-up!!ped! !>!E2!ped-up!!ped! !>!D2!ped-up! | %77
!ped! (6:4:6(A,,E,A,CA,E,)!ped-up!!ped! (6:4:6(G,,G,B,DB,G,)!ped-up! | %78
!ped! (6:4:6(B,,F,B,=DB,F,)!ped-up!!ped! (6:4:6(B,,B,DAD!ped-up!B,) | %79
!ped! (3(E,GB,)!ped-up!!ped! (3(F,F=A,)!ped-up!!ped! (3(G,EB,)!ped-up!!ped! (3(_A,G!ped-up!C) | %80
!ped! (6:4:6(D,A,DFDA,)!ped-up!!ped! (6:4:6(D,A,CGCA,)!ped-up! | %81
!ped! (6:4:6(D,A,CGCA,) (6:4:6(D,A,CGCA,)!ped-up! || %82
[K:E][M:2/2]!ped! (6:4:6(C,G,CECG,) (6:4:6(E,G,CECG,)!ped-up! | %83
!ped! (6:4:6(C,G,CECG,) (6:4:6(E,G,CEC!ped-up!G,) | %84
!ped! (6:4:6(D,A,CFCA,) (6:4:6(F,CDAD!ped-up!C) | %85
!ped! (6:4:6(G,,D,F,^B,F,D,) (6:4:6(G,,D,F,B,F,D,)!ped-up! | %86
!ped! (6:4:6(C,G,CECG,) (6:4:6(E,G,CEC!ped-up!G,) | %87
!ped! (6:4:6(C,G,^A,EA,G,)!ped-up!!ped! (6:4:6(E,G,A,CA,!ped-up!G,) | %88
!ped! (6:4:6(D,G,B,DB,G,)!ped-up!!ped! (6:4:6(D,^A,C^^FCA,)!ped-up! | %89
"^dimin."!ped! (6:4:6(G,,D,G,B,G,D,)!ped-up!!ped! (6:4:6(G,,D,G,B,G,!ped-up!D,) | %90
!ped! (6:4:6(A,,C,F,A,F,C,)!ped-up!!ped! (6:4:6(A,,C,F,A,F,!ped-up!C,) | %91
!ped! (6:4:6(B,,F,A,B,A,F,)!ped-up!!ped! (6:4:6(E,,B,,E,G,E,B,,)!ped-up! | %92
!ped! (6:4:6(A,,C,F,A,F,C,)!ped-up!!ped! (6:4:6(A,,C,F,A,F,C,)!ped-up! | %93
!ped! (6:4:6(B,,D,A,B,A,D,)!ped-up!!ped! (6:4:6(E,,B,,E,G,E,!ped-up!B,,) | %94
!ped! (6:4:6(A,,C,F,A,F,C,) (6:4:6(A,,C,F,A,F,!ped-up!C,) | %95
!ped! (6:4:6(B,,F,A,B,A,F,)!ped-up!!ped! (6:4:6(E,,B,,E,G,E,!ped-up!B,,) | %96
!ped! (6:4:6(A,,C,F,A,F,C,)!ped-up!!ped! (6:4:6(A,,D,F,A,F,!ped-up!D,) | %97
!ped! (6:4:6(G,,D,F,^B,F,D,) (6:4:6(G,,D,F,B,F,!ped-up!D,) | %98
!ped! (6:4:6(!>!A,,D,F,=B,F,D,)!ped-up!!ped! (6:4:6(!>!^A,,D,F,^A,F,D,)!ped-up! | %99
!ped! (6:4:6(^B,,D,F,=A,F,D,) (6:4:6(B,,D,F,=A,F,!ped-up!D,) | %100
!ped! (6:4:6(!>!A,,D,F,B,F,D,)!ped-up!!ped! (6:4:6(!>!^A,,D,F,^A,F,!ped-up!D,) | %101
!ped! (6:4:6(!>!B,,D,F,=A,F,D,)!ped-up!!ped! (6:4:6(!>!^B,,D,F,G,F,D,)!ped-up! | %102
!ped! (6:4:6(C,G,CECG,) (6:4:6(E,G,CECG,)!ped-up! | %103
!ped! (6:4:6(C,G,CECG,) (6:4:6(E,G,CEC!ped-up!G,) | %104
!ped! (6:4:6(D,A,CFCA,) (6:4:6(F,CDAD!ped-up!C) | %105
!ped! (6:4:6(G,,D,F,^B,F,D,) (6:4:6(G,,D,F,B,F,D,)!ped-up! | %106
!ped! (6:4:6(C,G,CECG,) (6:4:6(E,G,CEC!ped-up!G,) | %107
!ped! (6:4:6(F,CDADC)!ped-up![K:treble]!ped! (6:4:6(G,C^EBE!ped-up!C) | %108
!ped! (6:4:6(A,CFAFC)!ped-up!!ped! (6:4:6(G,C^EBE!ped-up!C) | %109
!ped! (6:4:6(A,CFAFC)!ped-up![K:bass]!ped! (6:4:6(^B,,F,G,DG,!ped-up!F,) | %110
!ped! (6:4:6(C,G,CECG,)!ped-up!!ped! (6:4:6(D,G,^B,FB,!ped-up!G,) | %111
!ped! (6:4:6(E,G,CECG,)!ped-up!!ped! (6:4:6(F,CDAD!ped-up!C) | %112
!f! [G,CEG] z z2!ped! !>![^^F,CE=A]2 z2!ped-up! | z8 | %114
!ped! [G,,,G,,] z[K:treble] [Ee]2 [Cc]2!ped-up! [G,G]2 |[K:bass] [E,E]2 [C,C]2 [G,,G,]2 [E,,E,]2 | %116
 [C,,C,]2 [G,,,G,,]2!ped-up!!ped! [G,,,G,,]2!ped-up!!ped! [A,,,A,,]2 | %117
!ped! [G,,,G,,]2!ped-up!!ped! [^^F,,,^^F,,]2!ped-up!!ped! [G,,,G,,]4!ped-up! | %118
!ped! (C,,E,C,G,,)!ped-up!!ped! (C,,E,^B,,G,,)!ped-up! | %119
!ped! (C,,E,C,G,,)!ped-up!!ped! (C,,E,^B,,G,,)!ped-up! | %120
!ped! (C,,E,C,G,,)!ped-up!!ped! (C,,E,^B,,G,,)!ped-up! | %121
!ped! (C,,E,C,G,,)!ped-up!!ped! (C,,E,^B,,G,,)!ped-up! | %122
!ped! (C,,E,C,G,,)!ped-up!!ped! (C,,G,C,G,,)!ped-up! | %123
!ped! (C,,E,C,G,,)!ped-up!!ped! (C,,G,C,G,,)!ped-up! | %124
!ped! (C,,E,C,G,,)!ped-up!!ped! (C,,E,C,G,,)!ped-up! | %125
!ped! (C,,E,C,G,,)!ped-up!!ped! (C,,E,C,G,,)!ped-up! |!ped! C,,2 z2 z4!ped-up! | z8 | %128
!ped! ([C,,G,,]8!ped-up! |!ped! ^A,,2 G,,2!<(! C,2 D,2!ped-up!!<)! |!mf! ^E,8) | %131
!ped! (!>!G,8!ped-up! |!ped! F,4 ^E,4!ped-up! | D,4 ^E,2 C,2 |!ped! G,,8)!ped-up! | %135
!ped! [G,,,G,,]8!ped-up! |!ped! [C,,G,,]8!ped-up! |!ped! [C,,G,,]8!ped-up! |] %138
V:3
 x8 | x8 | x8 | x8 | x8 | x8 | x4!8va(! x4!8va)! | x8 | x8 | x8 | x8 | x8 | %12
 (!>!G/g/^B/c/) (!>!F/f/B/c/) (!>!^E/^e/B/c/) (!>!F/f/B/c/) | x8 | x8 | x8 | %16
 (G/!>!g/^B/c/) (F/!>!f/B/c/) (^E/!>!^e/B/c/) (F/!>!f/B/c/) | x8 | x8 | x8 | x8 | x8 | x8 | x8 | %24
 x8 | x8 | x4!8va(! x4!8va)! | x8 | x8 | x8 | x8 | x8 | x8 | x8 | x8 | x8 | x2!8va(! x6!8va)! | %37
 x8 | x8 | x8 ||[K:Db] x8 | x8 ||[M:4/4] x8 | f4 (!>!a4 | x8 | A4) x4 | x8 | x8 | x8 | x8 | x8 | %51
 f4!mf! (!>!a4 | x8 | A4) x4 | x8 | x8 | x8 | x8 | x8 | x8 | x8 | x8 | x8 | f4!mf! (!>!a4 | x8 | %65
 A4) x4 | x8 | x8 | x8 | x8 | x8 | x8 | x8 | x8 | x8 | f4!mf! (!>!a4 | x8 | A4) x4 | x8 | x8 | x8 | %81
 x8 ||[K:E][M:2/2] x8 | x8 | x4!8va(! x4!8va)! | x8 | x8 | x8 | x8 | x8 | %90
 (!>!G/g/^B/c/) (!>!F/f/B/c/) (!>!^E/^e/B/c/) (!>!F/f/B/c/) | x8 | x8 | x8 | %94
 (G/!>!g/^B/c/) (F/!>!f/B/c/) (^E/!>!^e/B/c/) (F/!>!f/B/c/) | x8 | x8 | x8 | x8 | x8 | x8 | x8 | %102
 x8 | x8 | x4!8va(! x4!8va)! | x8 | x8 | x8 | x8 | x8 | x8 | x8 | x8 | x8 | x2!8va(! x6!8va)! | %115
 x8 | x8 | x8 | x3 e2 e2 d | x8 | x8 | x8 | x8 | x8 | x8 | x8 | x8 | x8 | x8 | x8 | x8 | x8 | x8 | %133
 x8 | x8 | x8 | x8 | x8 |] %138
V:4
 x8 | x8 | x8 | x8 | x8 | x8 | x8 | x8 | x8 | x8 | x8 | x8 | x8 | x8 | x8 | x8 | x8 | x8 | x8 | %19
 x8 | x8 | x8 | x8 | x8 | x8 | x8 | x8 | x8 | x8 | x4[K:treble] x4 | x8 | x4[K:bass] x4 | x8 | x8 | %34
 x8 | x8 | x2[K:treble] x6 |[K:bass] x8 | x8 | x8 ||[K:Db] x8 | x8 ||[M:4/4] x8 | x8 | %44
 (3(GEA,) (3(FDA,) (3(ECA,) (3(DA,F,) | x8 | x8 | x8 | x8 | x6 !>!B,2 | x8 | x8 | %52
 (3(GEA,) (3(FDA,) (3(ECA,) (3(DA,F,) | x8 | x8 | x8 | x8 | x8 | x8 | x8 | x8 | x8 | x8 | x8 | %64
 (3(GEA,) (3(FDA,) (3(ECA,) (3(DA,F,) | x8 | x8 | x8 | x8 | x8 | x8 | x8 | x8 | x8 | x8 | x8 | %76
 (3(GEA,) (3(FDA,) (3(ECA,) (3(DA,F,) | x8 | x8 | x8 | x8 | x8 ||[K:E][M:2/2] x8 | x8 | x8 | x8 | %86
 x8 | x8 | x8 | x8 | x8 | x8 | x8 | x8 | x8 | x8 | x8 | x8 | x8 | x8 | x8 | x8 | x8 | x8 | x8 | %105
 x8 | x8 | x4[K:treble] x4 | x8 | x4[K:bass] x4 | x8 | x8 | x8 | x8 | x2[K:treble] x6 | %115
[K:bass] x8 | x8 | x8 | x8 | x8 | x8 | x8 | x8 | x8 | x8 | x8 | x8 | x8 | x8 | x8 | x8 | x8 | x8 | %133
 x8 | x8 | x8 | x8 | x8 |] %138

